StripePaymentsUI/StripePaymentsUI/Resources/StripePaymentsUI.xcassets/CardsNoPadding/stp_card_unpadded_jcb.imageset/stp_card_unpadded_jcb.svg

<svg fill="none" height="16" viewBox="0 0 24 16" width="24" xmlns="http://www.w3.org/2000/svg"><path d="m0 16h4.8c1.092 0 2.4-1.1947 2.4-2.1333v-13.8667h-4.8c-1.092 0-2.4 1.19467-2.4 3.2z" fill="#047ab1"/><path d="m2.724 10.816c-.9215.0002-1.83846-.1147-2.724-.3413v-1.17336c.687181.37771 1.47266.59084 2.28.61867.924 0 1.44-.576 1.44-1.36533v-3.22134h2.28v3.22134c0 1.25866-.744 2.26132-3.276 2.26132z" fill="#fff"/><path d="m8.40002 16h4.79998c1.092 0 2.4-1.1947 2.4-2.1333v-13.8667h-4.8c-1.09198 0-2.39998 1.19467-2.39998 3.2z" fill="#d42d06"/><path d="m8.40002 6.07999c.696-.59733 1.89598-.97066 3.83998-.88533 1.056.04267 2.16.32 2.16.32v1.184c-.6314-.33948-1.3412-.54735-2.076-.608-1.476-.11733-2.37598.61867-2.37598 1.90933 0 1.29067.89998 2.02671 2.37598 1.92.7353-.06606 1.4446-.27744 2.076-.61866v1.17337s-1.104.288-2.16.3306c-1.944.0854-3.14398-.288-3.83998-.88531z" fill="#fff"/><path d="m16.8 16h4.8c1.092 0 2.4-1.1947 2.4-2.1333v-13.8667h-4.8c-1.092 0-2.4 1.19467-2.4 3.2z" fill="#67b637"/><path d="m22.8 9.28001c0 .85329-.7439 1.38669-1.7399 1.38669h-4.2601v-5.33336h3.876l.276.01067c.876.04267 1.524.50133 1.524 1.29067 0 .61866-.444 1.152-1.2479 1.28v.032c.8879.05333 1.5719.55466 1.5719 1.33333zm-3.06-3.104c-.0516-.00687-.1037-.01043-.156-.01067h-1.4399v1.344h1.5959c.3-.064.552-.30933.552-.672 0-.36266-.252-.608-.552-.66133zm.18 2.176c-.0634-.00886-.1277-.01243-.192-.01067h-1.5839v1.46134h1.5839l.192-.02134c.3-.064.552-.34133.552-.71466 0-.37334-.24-.64-.552-.71467z" fill="#fff"/></svg>

<svg width="24" height="16" viewBox="0 0 24 16" fill="none" xmlns="http://www.w3.org/2000/svg">
<path d="M0 16H4.8C5.892 16 7.2 14.8053 7.2 13.8667V0H2.4C1.308 0 0 1.19467 0 3.2V16Z" fill="#047AB1"/>
<path d="M2.724 10.816C1.8025 10.8162 0.88554 10.7013 0 10.4747V9.30134C0.687181 9.67905 1.47266 9.89218 2.28 9.92001C3.204 9.92001 3.72 9.34401 3.72 8.55468V5.33334H6V8.55468C6 9.81334 5.256 10.816 2.724 10.816Z" fill="white"/>
<path d="M8.40002 16H13.2C14.292 16 15.6 14.8053 15.6 13.8667V0H10.8C9.70802 0 8.40002 1.19467 8.40002 3.2V16Z" fill="#D42D06"/>
<path d="M8.40002 6.07999C9.09602 5.48266 10.296 5.10933 12.24 5.19466C13.296 5.23733 14.4 5.51466 14.4 5.51466V6.69866C13.7686 6.35918 13.0588 6.15131 12.324 6.09066C10.848 5.97333 9.94802 6.70933 9.94802 7.99999C9.94802 9.29066 10.848 10.0267 12.324 9.91999C13.0593 9.85393 13.7686 9.64255 14.4 9.30133V10.4747C14.4 10.4747 13.296 10.7627 12.24 10.8053C10.296 10.8907 9.09602 10.5173 8.40002 9.91999V6.07999Z" fill="white"/>
<path d="M16.8 16H21.6C22.692 16 24 14.8053 24 13.8667V0H19.2C18.108 0 16.8 1.19467 16.8 3.2V16Z" fill="#67B637"/>
<path d="M22.8 9.28001C22.8 10.1333 22.0561 10.6667 21.0601 10.6667H16.8V5.33334H20.676L20.952 5.34401C21.828 5.38668 22.476 5.84534 22.476 6.63468C22.476 7.25334 22.032 7.78668 21.2281 7.91468V7.94668C22.116 8.00001 22.8 8.50134 22.8 9.28001ZM19.74 6.17601C19.6884 6.16914 19.6363 6.16558 19.584 6.16534H18.1441V7.50934H19.74C20.04 7.44534 20.292 7.20001 20.292 6.83734C20.292 6.47468 20.04 6.22934 19.74 6.17601ZM19.92 8.35201C19.8566 8.34315 19.7923 8.33958 19.728 8.34134H18.1441V9.80268H19.728L19.92 9.78134C20.22 9.71734 20.472 9.44001 20.472 9.06668C20.472 8.69334 20.232 8.42668 19.92 8.35201Z" fill="white"/>
</svg>
